Adwaita++-Light/panel/16/mstdn-panel.svg

<svg height="16" width="16" xmlns="http://www.w3.org/2000/svg">
  <path d="m6 1c-2.2159714 0-4 1.8383344-4 4.1230469v2.2539062c0 .0035.0019531.0051925.0019531.0078125.00206 1.507625.1407732 4.8679544 1.3046875 6.2207034 1.0487174 1.219753 3.4922688 1.394531 4.4804688 1.394531 1.0088275 0 1.7415371-.2265 2.2128906-.423828v-1.802734c-.4864112.134146-1.1744609.290088-1.9824219.27539-.9002571-.025375-2.7111826-.684219-2.9042969-1.699219-.0256285-.125125-.0363446-.270625-.0546874-.40625.1788.0245.3554441.056641.5410156.056641h4.4003906c2.215714 0 4-1.3384219 4-3.6230469v-2.2539062c0-2.2847125-1.784286-4.1230469-4-4.1230469zm0 3a.99999995 1 0 0 1 1 1 .99999995 1 0 0 1 -1 1 .99999995 1 0 0 1 -1-1 .99999995 1 0 0 1 1-1z" fill="#444"/>
</svg>

<svg xmlns="http://www.w3.org/2000/svg" width="16" height="16" version="1.1">
 <defs>
  <style id="current-color-scheme" type="text/css">
   .ColorScheme-Text { color:#444444; } .ColorScheme-Highlight { color:#4285f4; }
  </style>
 </defs>
 <path style="fill:currentColor" class="ColorScheme-Text" d="M 6 1 C 3.7840286 1 2 2.8383344 2 5.1230469 L 2 7.3769531 C 2 7.3804531 2.0019531 7.3821456 2.0019531 7.3847656 C 2.0040131 8.8923906 2.1427263 12.25272 3.3066406 13.605469 C 4.355358 14.825222 6.7989094 15 7.7871094 15 C 8.7959369 15 9.5286465 14.7735 10 14.576172 L 10 12.773438 C 9.5135888 12.907584 8.8255391 13.063526 8.0175781 13.048828 C 7.117321 13.023453 5.3063955 12.364609 5.1132812 11.349609 C 5.0876527 11.224484 5.0769366 11.078984 5.0585938 10.943359 C 5.2373938 10.967859 5.4140379 11 5.5996094 11 L 10 11 C 12.215714 11 14 9.6615781 14 7.3769531 L 14 5.1230469 C 14 2.8383344 12.215714 1 10 1 L 6 1 z M 6 4 A 0.99999995 1 0 0 1 7 5 A 0.99999995 1 0 0 1 6 6 A 0.99999995 1 0 0 1 5 5 A 0.99999995 1 0 0 1 6 4 z"/>
</svg>
